app/public/dtpr-icons/video.svg

<svg width="36" height="36" viewBox="0 0 36 36" fill="none" xmlns="http://www.w3.org/2000/svg">
<path d="M31.8564 8.8453L19 1.42265C18.3812 1.06538 17.6188 1.06538 17 1.42265L4.14359 8.8453C3.52479 9.20257 3.14359 9.86282 3.14359 10.5774V25.4226C3.14359 26.1372 3.52479 26.7974 4.14359 27.1547L17 34.5774C17.6188 34.9346 18.3812 34.9346 19 34.5774L31.8564 27.1547C32.4752 26.7974 32.8564 26.1372 32.8564 25.4226V10.5774C32.8564 9.86282 32.4752 9.20256 31.8564 8.8453Z" fill="#FFDD00" stroke="#FFDD00" stroke-width="2"/>
<path fill-rule="evenodd" clip-rule="evenodd" d="M10 12H22C22.55 12 23 12.45 23 13V16.5L26.1464 13.3536C26.4614 13.0386 27 13.2617 27 13.7071V22.2929C27 22.7383 26.4614 22.9614 26.1464 22.6464L23 19.5V23C23 23.55 22.55 24 22 24H10C9.45 24 9 23.55 9 23V13C9 12.45 9.45 12 10 12ZM11 22H21V14H11V22Z" fill="black"/>
</svg>

<svg xmlns="http://www.w3.org/2000/svg" width="36" height="36" fill="none"><path fill="#FD0" stroke="#FD0" stroke-width="2" d="M31.856 8.845 19 1.423a2 2 0 0 0-2 0L4.144 8.845a2 2 0 0 0-1 1.732v14.846a2 2 0 0 0 1 1.732L17 34.577a2 2 0 0 0 2 0l12.856-7.422a2 2 0 0 0 1-1.732V10.577a2 2 0 0 0-1-1.732Z"/><path fill="#000" fill-rule="evenodd" d="M10 12h12c.55 0 1 .45 1 1v3.5l3.146-3.146a.5.5 0 0 1 .854.353v8.586a.5.5 0 0 1-.854.353L23 19.5V23c0 .55-.45 1-1 1H10c-.55 0-1-.45-1-1V13c0-.55.45-1 1-1m1 10h10v-8H11z" clip-rule="evenodd"/></svg>
